brandFactory_export/2.Regular/Monumento_2Regular.svg

<?xml version="1.0" encoding="UTF-8"?>
<svg width="24px" height="24px" viewBox="0 0 24 24" version="1.1" xmlns="http://www.w3.org/2000/svg" xmlns:xlink="http://www.w3.org/1999/xlink">
    <title>2.Regular/Monumento_2Regular</title>
    <g id="Symbols" stroke="none" stroke-width="1" fill="none" fill-rule="evenodd">
        <g id="2.Regular/Monumento_2Regular" fill="#5CB615" fill-rule="nonzero">
            <path d="M6.49579832,22.1445378 L17.312605,22.1445378 L17.312605,20.4638655 L6.49579832,20.4638655 L6.49579832,22.1445378 Z M8.1697479,18.9882353 L15.6386555,18.9882353 L15.6386555,17.7142857 L8.1697479,17.7142857 L8.1697479,18.9882353 Z M10.4756303,8.39663866 L13.4436975,8.39663866 L14.3445378,16.2352941 L9.57142857,16.2352941 L10.4756303,8.39663866 L10.4756303,8.39663866 Z M9.49411765,6.9210084 L14.4218487,6.9210084 L14.4218487,5.78487395 L9.49411765,5.78487395 L9.49411765,6.9210084 L9.49411765,6.9210084 Z M7.45042017,1.4789916 L8.1394958,1.4789916 L8.1394958,2.58823529 C8.1394958,2.99495798 8.47226891,3.32773109 8.8789916,3.32773109 L10.912605,3.32773109 C11.3226891,3.32773109 11.6521008,2.99831933 11.6521008,2.58823529 L11.6521008,1.4789916 L12.0554622,1.4789916 L12.0554622,2.68235294 C12.0554622,2.88067227 12.1361345,3.06890756 12.2773109,3.20672269 C12.4184874,3.34453782 12.610084,3.42184874 12.8084034,3.41848739 L14.8789916,3.38823529 C15.2823529,3.38151261 15.6084034,3.05210084 15.6084034,2.6487395 L15.6084034,1.4789916 L16.3882353,1.4789916 L16.3882353,4.3092437 L7.44705882,4.3092437 L7.44705882,1.4789916 L7.45042017,1.4789916 Z M18.0521008,18.9882353 L17.1176471,18.9882353 L17.1176471,16.9747899 C17.1176471,16.5680672 16.7848739,16.2352941 16.3781513,16.2352941 L15.8369748,16.2352941 L14.9327731,8.39663866 L15.1613445,8.39663866 C15.5714286,8.39663866 15.9008403,8.06722689 15.9008403,7.65714286 L15.9008403,5.78151261 L17.1277311,5.78151261 C17.5378151,5.78151261 17.8672269,5.45210084 17.8672269,5.04201681 L17.8672269,0.739495798 C17.8672269,0.332773109 17.5344538,0 17.1277311,0 L14.8655462,0 C14.4554622,0 14.1260504,0.329411765 14.1260504,0.739495798 L14.1260504,1.92268908 L13.5344538,1.93277311 L13.5344538,0.739495798 C13.5344538,0.332773109 13.2016807,0 12.794958,0 L10.912605,0 C10.502521,0 10.1731092,0.329411765 10.1731092,0.739495798 L10.1731092,1.8487395 L9.61848739,1.8487395 L9.61848739,0.739495798 C9.61848739,0.332773109 9.28571429,0 8.8789916,0 L6.70756303,0 C6.29747899,0 5.96806723,0.329411765 5.96806723,0.739495798 L5.96806723,5.04537815 C5.96806723,5.45210084 6.30084034,5.78487395 6.70756303,5.78487395 L8.01176471,5.78487395 L8.01176471,7.6605042 C8.01176471,8.06722689 8.34453782,8.4 8.7512605,8.4 L8.97983193,8.4 L8.07563025,16.2386555 L7.42352941,16.2386555 C7.01344538,16.2386555 6.68403361,16.5680672 6.68403361,16.9781513 L6.68403361,18.9915966 L5.74957983,18.9915966 C5.3394958,18.9915966 5.01008403,19.3210084 5.01008403,19.7310924 L5.01008403,22.8907563 C5.01008403,23.297479 5.34285714,23.6302521 5.74957983,23.6302521 L18.0487395,23.6302521 C18.4588235,23.6302521 18.7883354,23.3008403 18.7883354,22.8907563 L18.7883354,19.7310924 C18.794958,19.3176471 18.4621849,18.9882353 18.0521008,18.9882353 L18.0521008,18.9882353 Z" id="Monumento_2Regular"></path>
        </g>
    </g>
</svg>

<svg width="24" height="24" viewBox="0 0 24 24" xmlns="http://www.w3.org/2000/svg"><path d="M6.496 22.145h10.817v-1.681H6.496v1.68zm1.674-3.157h7.469v-1.274h-7.47v1.274zm2.306-10.591h2.968l.9 7.838H9.572l.905-7.838zM9.494 6.92h4.928V5.785H9.494V6.92zM7.45 1.479h.69v1.11c0 .406.332.739.739.739h2.034c.41 0 .74-.33.74-.74V1.48h.402v1.203a.744.744 0 00.753.736l2.071-.03a.742.742 0 00.73-.74V1.48h.78v2.83H7.446V1.48h.003zm10.602 17.51h-.934v-2.014a.742.742 0 00-.74-.74h-.541l-.904-7.838h.228c.41 0 .74-.33.74-.74V5.782h1.227c.41 0 .74-.33.74-.74V.739a.742.742 0 00-.74-.739h-2.262c-.41 0-.74.33-.74.74v1.183l-.592.01V.739A.742.742 0 0012.795 0h-1.882c-.41 0-.74.33-.74.74v1.109h-.555V.739A.742.742 0 008.88 0H6.708c-.41 0-.74.33-.74.74v4.305c0 .407.333.74.74.74h1.304V7.66c0 .406.333.739.74.739h.228l-.904 7.839h-.652c-.41 0-.74.33-.74.74v2.013H5.75c-.41 0-.74.329-.74.74v3.159c0 .406.333.74.74.74h12.299c.41 0 .74-.33.74-.74v-3.16a.731.731 0 00-.737-.743z" fill="#5CB615" fill-rule="nonzero"/></svg>
